icons/1_Primary/NamePros.svg

<svg xmlns="http://www.w3.org/2000/svg" width="1024" height="1024" fill="none">
   <g clip-path="url(#a)">
      <path fill="#FF837D" d="M512 1024c282.77 0 512-229.23 512-512S794.77 0 512 0 0 229.23 0 512s229.23 512 512 512Z"/>
      <path fill="#fff" d="M128 555.89h7.17v-42.94a58.502 58.502 0 0 1 .3-6.18 35.9 35.9 0 0 1 1.07-5.79 38.411 38.411 0 0 1 12.83-20.13A34.3 34.3 0 0 1 171 473c9.24.28 15.13 3.323 17.67 9.13 2.54 5.807 3.65 12.677 3.33 20.61v53.15h7.17V500.1c.213-10.513-1.707-18.827-5.76-24.94-4.053-6.113-11.523-9.24-22.41-9.38-10.667.52-19 3.62-25 9.3-6 5.68-9.73 10.85-11.19 15.51h-.34s.14-.74.34-2.09c.224-1.701.337-3.414.34-5.13v-15.48H128v88Zm93.06-23.41c.347 8.76 3.457 15.213 9.33 19.36a33.081 33.081 0 0 0 19.7 6.16c7.333-.267 13.217-2.137 17.65-5.61a36.136 36.136 0 0 0 9.5-10.39c1.92-3.473 2.833-5.343 2.74-5.61h.34s-.14.76-.34 2.18a47.271 47.271 0 0 0-.34 5.74v11.61h7.17V499c0-11.007-2.583-19.3-7.75-24.88-5.167-5.58-12.66-8.373-22.48-8.38-9.333.407-16.47 2.02-21.41 4.84-4.94 2.82-7.423 4.433-7.45 4.84l4.1 6c.087-.353 2.3-1.76 6.64-4.22s10.267-3.86 17.78-4.2c6.953-.127 12.56 1.803 16.82 5.79s6.45 10.8 6.57 20.44v3H274a139.541 139.541 0 0 0-20.48 1.2 50.397 50.397 0 0 0-22.11 7.93c-6.527 4.307-9.977 11.353-10.35 21.14v-.02Zm7.51-.53c.293-7.487 3.16-12.853 8.6-16.1a44.712 44.712 0 0 1 18.73-5.93 146.312 146.312 0 0 1 18.27-.85h5.46v4.75A45.249 45.249 0 0 1 272 539c-5.027 7.613-12.22 11.653-21.58 12.12-7.26-.213-12.717-2.243-16.37-6.09a18.523 18.523 0 0 1-5.49-13.09l.01.01Zm87.21 23.94H323v-42.94a58.502 58.502 0 0 1 .3-6.18 35.9 35.9 0 0 1 1.07-5.79 43.775 43.775 0 0 1 11.31-19.64 28.313 28.313 0 0 1 19.77-8.69c9.087.307 14.907 3.43 17.46 9.37 2.553 5.94 3.677 12.847 3.37 20.72v53.15h7.17v-42.94a58.238 58.238 0 0 1 .41-7.17 39.507 39.507 0 0 1 1.3-6.38 40.786 40.786 0 0 1 11.12-18.52 27.879 27.879 0 0 1 18.93-8.23c8.807.22 14.627 3.167 17.46 8.84s4.127 12.757 3.88 21.25v53.15h7.17V500.1c.187-10.593-1.813-18.927-6-25s-11.693-9.173-22.52-9.3a32.611 32.611 0 0 0-19.94 7.35 39.997 39.997 0 0 0-12.51 16.59h-.34c-.873-7.853-3.467-13.8-7.78-17.84-4.313-4.04-10.71-6.07-19.19-6.09-6.927.207-13.523 2.693-19.79 7.46a37.076 37.076 0 0 0-13 17.36h-.34s.14-.74.34-2.09c.224-1.701.337-3.414.34-5.13V467.9h-7.17l-.04 87.99Zm150.78-43.82c.333 14.153 4.667 25.307 13 33.46 8.333 8.153 18.687 12.31 31.06 12.47 9.333-.507 16.703-2.53 22.11-6.07 5.407-3.54 8.167-5.563 8.28-6.07l-3.93-6.16c-.08.46-2.443 2.307-7.09 5.54s-11.107 5.08-19.38 5.54a35.375 35.375 0 0 1-25.7-10.49c-6.947-6.92-10.56-16.797-10.84-29.63h68.48c0-.08.057-.63.17-1.65.113-1.02.17-2.053.17-3.1 0-10.987-2.903-20.32-8.71-28s-14.517-11.707-26.13-12.08a39.991 39.991 0 0 0-28.95 12c-8 7.92-12.183 19.35-12.55 34.29l.01-.05Zm8-8.27c1.753-10.307 5.723-18.073 11.91-23.3a32.269 32.269 0 0 1 21.39-7.85 25.687 25.687 0 0 1 18.74 7.52c5.2 5.06 8.117 12.937 8.75 23.63h-60.79Zm93.63 52h16.91v-45.91h27.15c11.22-.167 20.293-3.79 27.22-10.87 6.927-7.08 10.49-16.597 10.69-28.55-.2-11.94-3.763-21.37-10.69-28.29-6.927-6.92-16-10.453-27.22-10.6h-44.03l-.03 124.22Zm16.91-61.07v-48h24.59c7.24.053 12.907 2.143 17 6.27s6.17 9.957 6.23 17.49c-.067 7.553-2.15 13.47-6.25 17.75-4.1 4.28-9.813 6.457-17.14 6.53l-24.43-.04Zm83.42 61.07h16.56v-36.41c-.01-2.72.14-5.438.45-8.14a46.299 46.299 0 0 1 1.6-7.88c2.067-6.667 5.277-11.807 9.63-15.42a22.558 22.558 0 0 1 14.62-5.52c1.122.004 2.241.091 3.35.26.913.153 1.39.24 1.43.26v-16.88l-1.3-.18a27.337 27.337 0 0 0-3-.18 25.456 25.456 0 0 0-17.18 6.73 35.992 35.992 0 0 0-10.14 16.5h-.34s.07-.7.17-2 .16-2.83.17-4.73v-15.43h-16l-.02 89.02Zm57.71-44.7c.333 13.807 4.88 24.997 13.64 33.57 8.76 8.573 19.76 12.987 33 13.24 13.227-.253 24.227-4.667 33-13.24s13.32-19.763 13.64-33.57c-.333-13.713-4.88-24.823-13.64-33.33-8.76-8.507-19.76-12.883-33-13.13-13.227.253-24.227 4.63-33 13.13s-13.31 19.617-13.61 33.35l-.03-.02Zm16.91 0c.227-9.407 3.15-16.997 8.77-22.77a29.14 29.14 0 0 1 41.95 0c5.593 5.773 8.497 13.363 8.71 22.77-.213 9.493-3.117 17.16-8.71 23a28.896 28.896 0 0 1-41.95 0c-5.607-5.827-8.523-13.487-8.75-22.98l-.02-.02ZM832 544.91c.047.54 2.863 2.71 8.45 6.51s13.697 5.97 24.33 6.51c9.593-.153 17.17-2.617 22.73-7.39a23.751 23.751 0 0 0 8.49-18.48c-.547-9.413-4.383-16.16-11.51-20.24a140.296 140.296 0 0 0-21.38-10c-7.127-2.613-10.963-6.427-11.51-11.44.14-3.84 1.607-6.627 4.4-8.36a17.89 17.89 0 0 1 9.78-2.55c6.867.333 12.133 1.667 15.8 4 3.667 2.333 5.517 3.667 5.55 4l6.66-12.85c0-.413-2.27-2.057-6.81-4.93-4.54-2.873-11.54-4.517-21-4.93-8.847.047-16.21 2.247-22.09 6.6-5.88 4.353-8.947 10.567-9.2 18.64.547 9.333 4.383 16.057 11.51 20.17a147.06 147.06 0 0 0 21.38 10.16c7.127 2.667 10.963 6.577 11.51 11.73a9.798 9.798 0 0 1-4.48 8.25 17.546 17.546 0 0 1-9.86 2.84c-7.607-.433-13.607-2.163-18-5.19-4.393-3.027-6.643-4.757-6.75-5.19l-8 12.14Z"/>
   </g>
   <defs>
      <clipPath id="a">
         <path fill="#fff" d="M0 0h1024v1024H0z"/>
      </clipPath>
   </defs>
</svg>

<svg width="1024" height="1024" viewBox="0 0 1024 1024" fill="none" xmlns="http://www.w3.org/2000/svg">
<g clip-path="url(#clip0_2_2871)">
<path d="M512 1024C794.77 1024 1024 794.77 1024 512C1024 229.23 794.77 0 512 0C229.23 0 0 229.23 0 512C0 794.77 229.23 1024 512 1024Z" fill="#FF837D"/>
<path d="M128 555.89H135.17V512.95C135.161 510.886 135.261 508.823 135.47 506.77C135.668 504.814 136.025 502.877 136.54 500.98C138.57 493.078 143.064 486.027 149.37 480.85C155.461 475.821 163.101 473.048 171 473C180.24 473.28 186.13 476.323 188.67 482.13C191.21 487.937 192.32 494.807 192 502.74V555.89H199.17V500.1C199.383 489.587 197.463 481.273 193.41 475.16C189.357 469.047 181.887 465.92 171 465.78C160.333 466.3 152 469.4 146 475.08C140 480.76 136.27 485.93 134.81 490.59H134.47C134.47 490.59 134.61 489.85 134.81 488.5C135.034 486.799 135.147 485.086 135.15 483.37V467.89H128V555.89ZM221.06 532.48C221.407 541.24 224.517 547.693 230.39 551.84C236.132 555.942 243.034 558.1 250.09 558C257.423 557.733 263.307 555.863 267.74 552.39C271.557 549.583 274.785 546.053 277.24 542C279.16 538.527 280.073 536.657 279.98 536.39H280.32C280.32 536.39 280.18 537.15 279.98 538.57C279.75 540.475 279.637 542.392 279.64 544.31V555.92H286.81V499C286.81 487.993 284.227 479.7 279.06 474.12C273.893 468.54 266.4 465.747 256.58 465.74C247.247 466.147 240.11 467.76 235.17 470.58C230.23 473.4 227.747 475.013 227.72 475.42L231.82 481.42C231.907 481.067 234.12 479.66 238.46 477.2C242.8 474.74 248.727 473.34 256.24 473C263.193 472.873 268.8 474.803 273.06 478.79C277.32 482.777 279.51 489.59 279.63 499.23V502.23H274C267.153 502.127 260.308 502.528 253.52 503.43C245.628 504.295 238.053 507.012 231.41 511.36C224.883 515.667 221.433 522.713 221.06 532.5V532.48ZM228.57 531.95C228.863 524.463 231.73 519.097 237.17 515.85C242.896 512.509 249.294 510.484 255.9 509.92C261.966 509.256 268.068 508.972 274.17 509.07H279.63V513.82C279.637 522.784 276.981 531.548 272 539C266.973 546.613 259.78 550.653 250.42 551.12C243.16 550.907 237.703 548.877 234.05 545.03C232.319 543.316 230.943 541.278 230.001 539.032C229.059 536.786 228.569 534.376 228.56 531.94L228.57 531.95ZM315.78 555.89H323V512.95C322.991 510.886 323.091 508.823 323.3 506.77C323.498 504.814 323.855 502.877 324.37 500.98C326.351 493.554 330.251 486.78 335.68 481.34C340.863 475.945 347.971 472.821 355.45 472.65C364.537 472.957 370.357 476.08 372.91 482.02C375.463 487.96 376.587 494.867 376.28 502.74V555.89H383.45V512.95C383.439 510.554 383.576 508.159 383.86 505.78C384.117 503.621 384.552 501.487 385.16 499.4C387.135 492.339 390.976 485.942 396.28 480.88C401.305 475.816 408.079 472.87 415.21 472.65C424.017 472.87 429.837 475.817 432.67 481.49C435.503 487.163 436.797 494.247 436.55 502.74V555.89H443.72V500.1C443.907 489.507 441.907 481.173 437.72 475.1C433.533 469.027 426.027 465.927 415.2 465.8C407.919 465.955 400.9 468.542 395.26 473.15C389.701 477.481 385.386 483.205 382.75 489.74H382.41C381.537 481.887 378.943 475.94 374.63 471.9C370.317 467.86 363.92 465.83 355.44 465.81C348.513 466.017 341.917 468.503 335.65 473.27C329.683 477.632 325.156 483.677 322.65 490.63H322.31C322.31 490.63 322.45 489.89 322.65 488.54C322.874 486.839 322.987 485.126 322.99 483.41V467.9H315.82L315.78 555.89ZM466.56 512.07C466.893 526.223 471.227 537.377 479.56 545.53C487.893 553.683 498.247 557.84 510.62 558C519.953 557.493 527.323 555.47 532.73 551.93C538.137 548.39 540.897 546.367 541.01 545.86L537.08 539.7C537 540.16 534.637 542.007 529.99 545.24C525.343 548.473 518.883 550.32 510.61 550.78C505.84 550.854 501.105 549.963 496.689 548.16C492.272 546.357 488.266 543.68 484.91 540.29C477.963 533.37 474.35 523.493 474.07 510.66H542.55C542.55 510.58 542.607 510.03 542.72 509.01C542.833 507.99 542.89 506.957 542.89 505.91C542.89 494.923 539.987 485.59 534.18 477.91C528.373 470.23 519.663 466.203 508.05 465.83C502.665 465.778 497.326 466.815 492.351 468.877C487.376 470.939 482.869 473.984 479.1 477.83C471.1 485.75 466.917 497.18 466.55 512.12L466.56 512.07ZM474.56 503.8C476.313 493.493 480.283 485.727 486.47 480.5C492.408 475.369 500.013 472.579 507.86 472.65C511.33 472.573 514.779 473.199 518 474.492C521.221 475.784 524.146 477.716 526.6 480.17C531.8 485.23 534.717 493.107 535.35 503.8H474.56ZM568.19 555.8H585.1V509.89H612.25C623.47 509.723 632.543 506.1 639.47 499.02C646.397 491.94 649.96 482.423 650.16 470.47C649.96 458.53 646.397 449.1 639.47 442.18C632.543 435.26 623.47 431.727 612.25 431.58H568.22L568.19 555.8ZM585.1 494.73V446.73H609.69C616.93 446.783 622.597 448.873 626.69 453C630.783 457.127 632.86 462.957 632.92 470.49C632.853 478.043 630.77 483.96 626.67 488.24C622.57 492.52 616.857 494.697 609.53 494.77L585.1 494.73ZM668.52 555.8H685.08V519.39C685.07 516.67 685.22 513.952 685.53 511.25C685.834 508.582 686.369 505.945 687.13 503.37C689.197 496.703 692.407 491.563 696.76 487.95C700.82 484.427 706.005 482.469 711.38 482.43C712.502 482.434 713.621 482.521 714.73 482.69C715.643 482.843 716.12 482.93 716.16 482.95V466.07L714.86 465.89C713.864 465.775 712.863 465.715 711.86 465.71C705.493 465.726 699.364 468.127 694.68 472.44C689.856 476.91 686.349 482.617 684.54 488.94H684.2C684.2 488.94 684.27 488.24 684.37 486.94C684.47 485.64 684.53 484.11 684.54 482.21V466.78H668.54L668.52 555.8ZM726.23 511.1C726.563 524.907 731.11 536.097 739.87 544.67C748.63 553.243 759.63 557.657 772.87 557.91C786.097 557.657 797.097 553.243 805.87 544.67C814.643 536.097 819.19 524.907 819.51 511.1C819.177 497.387 814.63 486.277 805.87 477.77C797.11 469.263 786.11 464.887 772.87 464.64C759.643 464.893 748.643 469.27 739.87 477.77C731.097 486.27 726.56 497.387 726.26 511.12L726.23 511.1ZM743.14 511.1C743.367 501.693 746.29 494.103 751.91 488.33C754.628 485.512 757.886 483.27 761.49 481.739C765.094 480.208 768.969 479.418 772.885 479.418C776.801 479.418 780.676 480.208 784.28 481.739C787.884 483.27 791.142 485.512 793.86 488.33C799.453 494.103 802.357 501.693 802.57 511.1C802.357 520.593 799.453 528.26 793.86 534.1C791.16 536.95 787.908 539.22 784.302 540.772C780.696 542.323 776.811 543.123 772.885 543.123C768.959 543.123 765.074 542.323 761.468 540.772C757.862 539.22 754.61 536.95 751.91 534.1C746.303 528.273 743.387 520.613 743.16 511.12L743.14 511.1ZM832 544.91C832.047 545.45 834.863 547.62 840.45 551.42C846.037 555.22 854.147 557.39 864.78 557.93C874.373 557.777 881.95 555.313 887.51 550.54C890.205 548.28 892.365 545.451 893.833 542.255C895.301 539.059 896.041 535.577 896 532.06C895.453 522.647 891.617 515.9 884.49 511.82C877.657 507.892 870.505 504.547 863.11 501.82C855.983 499.207 852.147 495.393 851.6 490.38C851.74 486.54 853.207 483.753 856 482.02C858.947 480.248 862.343 479.362 865.78 479.47C872.647 479.803 877.913 481.137 881.58 483.47C885.247 485.803 887.097 487.137 887.13 487.47L893.79 474.62C893.79 474.207 891.52 472.563 886.98 469.69C882.44 466.817 875.44 465.173 865.98 464.76C857.133 464.807 849.77 467.007 843.89 471.36C838.01 475.713 834.943 481.927 834.69 490C835.237 499.333 839.073 506.057 846.2 510.17C853.042 514.126 860.192 517.523 867.58 520.33C874.707 522.997 878.543 526.907 879.09 532.06C879.093 533.7 878.685 535.315 877.902 536.756C877.119 538.198 875.987 539.42 874.61 540.31C871.68 542.218 868.246 543.207 864.75 543.15C857.143 542.717 851.143 540.987 846.75 537.96C842.357 534.933 840.107 533.203 840 532.77L832 544.91Z" fill="white"/>
</g>
<defs>
<clipPath id="clip0_2_2871">
<rect width="1024" height="1024" fill="white"/>
</clipPath>
</defs>
</svg>
